X:1
T:Title
L:1/8
Q:1/4=120
M:3/4
K:G
V:1 treble nm="Church Organ, Staff"
V:1
 D2 B2 G2 | GF F2 z2 | d2 A3 _B | B4 z2 | D2 B2 G2 | GF A4 | d2 A2 _B2 | B4 z2 | B2 A2 G2 | %9
w: By~C.~Farebrother * *|||||||||
 GF A2 z2 | c2 B2 A2 | GB d4 | d2 d2 d2 | ^de e2 z2 | F2 F2 F2 | G4 z2 |] %16
w: |||||||

